resources/haticons/SVG/texture.svg

<!-- Generated by IcoMoon.io -->
<svg version="1.1" xmlns="http://www.w3.org/2000/svg" width="24" height="24" viewBox="0 0 24 24">
<title>texture</title>
<path d="M9.281 21l11.719-11.719v2.859l-8.859 8.859h-2.859zM21 18.984q0 0.797-0.609 1.406t-1.406 0.609h-1.969l3.984-3.984v1.969zM5.016 3h1.969l-3.984 3.984v-1.969q0-0.797 0.609-1.406t1.406-0.609zM11.859 3h2.859l-11.719 11.719v-2.859zM19.5 3.094q1.172 0.328 1.453 1.406l-16.453 16.406q-1.078-0.328-1.406-1.406z"></path>
</svg>

<svg xmlns="http://www.w3.org/2000/svg" width="24" height="24"><path d="M9.281 21L21 9.281v2.859l-8.859 8.859H9.282zM21 18.984q0 .797-.609 1.406t-1.406.609h-1.969L21 17.015v1.969zM5.016 3h1.969L3.001 6.984V5.015q0-.797.609-1.406T5.016 3zm6.843 0h2.859L2.999 14.719V11.86zm7.641.094q1.172.328 1.453 1.406L4.5 20.906q-1.078-.328-1.406-1.406z"/></svg>
